src/assets/filled/NotificationBing.svg

<svg width="24" height="24" viewBox="0 0 24 24"  xmlns="http://www.w3.org/2000/svg">
<path d="M20.19 14.0598L19.06 12.1798C18.81 11.7698 18.59 10.9798 18.59 10.4998V8.6298C18.59 4.9998 15.64 2.0498 12.02 2.0498C8.38996 2.0598 5.43996 4.9998 5.43996 8.6298V10.4898C5.43996 10.9698 5.21996 11.7598 4.97996 12.1698L3.84996 14.0498C3.41996 14.7798 3.31996 15.6098 3.58996 16.3298C3.85996 17.0598 4.46996 17.6398 5.26996 17.8998C6.34996 18.2598 7.43996 18.5198 8.54996 18.7098C8.65996 18.7298 8.76996 18.7398 8.87996 18.7598C9.01996 18.7798 9.16996 18.7998 9.31996 18.8198C9.57996 18.8598 9.83996 18.8898 10.11 18.9098C10.74 18.9698 11.38 18.9998 12.02 18.9998C12.65 18.9998 13.28 18.9698 13.9 18.9098C14.13 18.8898 14.36 18.8698 14.58 18.8398C14.76 18.8198 14.94 18.7998 15.12 18.7698C15.23 18.7598 15.34 18.7398 15.45 18.7198C16.57 18.5398 17.68 18.2598 18.76 17.8998C19.53 17.6398 20.12 17.0598 20.4 16.3198C20.68 15.5698 20.6 14.7498 20.19 14.0598ZM12.75 9.9998C12.75 10.4198 12.41 10.7598 11.99 10.7598C11.57 10.7598 11.23 10.4198 11.23 9.9998V6.89981C11.23 6.4798 11.57 6.1398 11.99 6.1398C12.41 6.1398 12.75 6.4798 12.75 6.89981V9.9998Z" />
<path d="M14.8299 20.01C14.4099 21.17 13.2999 22 11.9999 22C11.2099 22 10.4299 21.68 9.87993 21.11C9.55993 20.81 9.31993 20.41 9.17993 20C9.30993 20.02 9.43993 20.03 9.57993 20.05C9.80993 20.08 10.0499 20.11 10.2899 20.13C10.8599 20.18 11.4399 20.21 12.0199 20.21C12.5899 20.21 13.1599 20.18 13.7199 20.13C13.9299 20.11 14.1399 20.1 14.3399 20.07C14.4999 20.05 14.6599 20.03 14.8299 20.01Z" />
</svg>

<?xml version="1.0" encoding="UTF-8"?>
<svg width="24" height="24" viewBox="0 0 24 24" xmlns="http://www.w3.org/2000/svg">
 <path d="m20.19 14.06-1.13-1.88c-0.25-0.41-0.47-1.2-0.47-1.68v-1.87c0-3.63-2.95-6.58-6.57-6.58-3.63 0.01-6.58 2.95-6.58 6.58v1.86c0 0.48-0.22 1.27-0.46 1.68l-1.13 1.88c-0.43 0.73-0.53 1.56-0.26 2.28 0.27 0.73 0.88 1.31 1.68 1.57 1.08 0.36 2.17 0.62 3.28 0.81 0.11 0.02 0.22 0.03 0.33 0.05 0.14 0.02 0.29 0.04 0.44 0.06 0.26 0.04 0.52 0.07 0.79004 0.09 0.63 0.06 1.27 0.09 1.91 0.09 0.63 0 1.26-0.03 1.88-0.09 0.23-0.02 0.46-0.04 0.68-0.07 0.18-0.02 0.36-0.04 0.54-0.07 0.11-0.01 0.22-0.03 0.33-0.05 1.12-0.18 2.23-0.46 3.31-0.82 0.77-0.26 1.36-0.84 1.64-1.58 0.28-0.75 0.2-1.57-0.21-2.26zm-7.44-4.06c0 0.42-0.34 0.76-0.76 0.76s-0.76-0.34-0.76-0.76v-3.1c0-0.42001 0.34-0.76001 0.76-0.76001s0.76 0.34 0.76 0.76001v3.1z"/>
 <path d="m14.83 20.01c-0.42 1.16-1.53 1.99-2.83 1.99-0.79 0-1.57-0.32-2.12-0.89-0.32-0.3-0.56-0.7-0.7-1.11 0.13 0.02 0.26 0.03 0.4 0.05 0.23 0.03 0.46997 0.06 0.70997 0.08 0.57 0.05 1.15 0.08 1.73 0.08 0.57 0 1.14-0.03 1.7-0.08 0.21-0.02 0.42-0.03 0.62-0.06 0.16-0.02 0.32-0.04 0.49-0.06z"/>
</svg>
